X: 3254
T: SPRIG OF SHILLELAH
%R: jig
B: James Kerr "Merry Melodies" v.3 p.28 #254
Z: 2016 John Chambers <jc:trillian.mit.edu>
M: 6/8
L: 1/8
K: G
uD |\
DGG GFG | ABA AGF |\
GBd dcB | AcB AGF |\
GAB EFG | DEF G2 ::\
c |\
BGB dBd | ece d2c |
BGB dBd | gfe d2c |\
BcB BAG | ABA AGF |\
GBd dcB | AcB AGF |\
GAB EFG | DEF G2 :|

%%sep 1 1 500
%%sep 1 1 500

